en/_assets/wiki/svg/wysiwyg/file.svg

<svg xmlns="http://www.w3.org/2000/svg" xmlns:xlink="http://www.w3.org/1999/xlink" width="16" height="16" class="yc-icon" fill="currentColor" stroke="none" aria-hidden="true"><svg viewBox="0 0 16 16" fill="none" xmlns="http://www.w3.org/2000/svg"><path d="M2.83203 13.5742C4.41797 15.1602 6.98828 15.1602 8.57422 13.5742C10.0508 12.0977 12.457 9.69141 13.9336 8.21484C14.0703 8.07812 14.0703 7.88672 13.9336 7.75L13.4688 7.28516C13.332 7.14844 13.1406 7.14844 13.0039 7.28516C11.5273 8.76172 9.12109 11.168 7.64453 12.6445C6.57812 13.7109 4.82812 13.7109 3.76172 12.6445C2.69531 11.5781 2.69531 9.82812 3.76172 8.76172L9.91406 2.60938C10.625 1.89844 11.7734 1.89844 12.4844 2.60938C13.1953 3.32031 13.1953 4.46875 12.4844 5.17969L7.31641 10.3477C6.96094 10.7031 6.38672 10.7031 6.03125 10.3477C5.70312 10.0195 5.70312 9.44531 6.03125 9.08984L10.4336 4.71484C10.5703 4.57812 10.5703 4.38672 10.4336 4.25L9.96875 3.78516C9.83203 3.64844 9.64062 3.64844 9.50391 3.78516L5.12891 8.16016C4.25391 9.03516 4.25391 10.4297 5.12891 11.2773C5.97656 12.1523 7.37109 12.1523 8.21875 11.2773L13.4141 6.10938C14.6445 4.87891 14.6445 2.91016 13.4141 1.67969C12.1836 0.449219 10.2148 0.449219 8.98438 1.67969L2.83203 7.83203C1.24609 9.41797 1.24609 11.9883 2.83203 13.5742Z" fill="currentColor"></path></svg></svg>

<svg xmlns="http://www.w3.org/2000/svg" width="16" height="16" fill="currentColor" aria-hidden="true" class="yc-icon"><svg xmlns="http://www.w3.org/2000/svg" fill="none" viewBox="0 0 16 16"><path fill="currentColor" d="M2.832 13.574a4.06 4.06 0 0 0 5.742 0l5.36-5.36a.315.315 0 0 0 0-.464l-.465-.465a.315.315 0 0 0-.465 0l-5.36 5.36a2.756 2.756 0 0 1-3.882 0 2.756 2.756 0 0 1 0-3.883l6.152-6.153c.711-.71 1.86-.71 2.57 0 .711.711.711 1.86 0 2.57l-5.168 5.169a.908.908 0 0 1-1.285 0c-.328-.329-.328-.903 0-1.258l4.403-4.375a.315.315 0 0 0 0-.465l-.465-.465a.315.315 0 0 0-.465 0L5.129 8.16c-.875.875-.875 2.27 0 3.117a2.147 2.147 0 0 0 3.09 0l5.195-5.168a3.12 3.12 0 0 0 0-4.43 3.12 3.12 0 0 0-4.43 0L2.832 7.833a4.06 4.06 0 0 0 0 5.742Z"/></svg></svg>
